X:4065
L:1/16
Q:1/8=90
M:3/4
K:Cmin
 G2c2 c2dc BcBA | G2c2 c2=Bc d4 | G2e2 e2dc e2d2 | c2=Bc dedc =B2G2 | G2c2 c2dc BcBA | 
 G2c2 c2=Bc d4 | G2e2 e2dc egec | dfd=B c8 |: G2g2 g2ag fgfd | edef gfg=B c2d2 | d2e2 e2dc e2d2 | 
 c2=Bc dedc =B2G2 | G2g2 g2ag fgfd | edef gfg=B c2d2 | d2e2 e2dc egec | dfd=B c8 :|

